packages/bezier-icons/icons/person-add-filled.svg

<svg width="24" height="24" viewBox="0 0 24 24" fill="none" xmlns="http://www.w3.org/2000/svg">
<path fill-rule="evenodd" clip-rule="evenodd" d="M17.9984 4.00012C17.9984 3.44784 18.4461 3.00012 18.9984 3.00012C19.5506 3.00012 19.9984 3.44784 19.9984 4.00012V6.00012H21.9984C22.5506 6.00012 22.9984 6.44784 22.9984 7.00012C22.9984 7.55241 22.5506 8.00012 21.9984 8.00012H19.9984V10.0001C19.9984 10.5524 19.5506 11.0001 18.9984 11.0001C18.4461 11.0001 17.9984 10.5524 17.9984 10.0001V8.00012H15.9984C15.4461 8.00012 14.9984 7.55241 14.9984 7.00012C14.9984 6.44784 15.4461 6.00012 15.9984 6.00012H17.9984V4.00012ZM14.614 8.59982C14.614 10.5878 13.002 12.1998 11.014 12.1998C9.02596 12.1998 7.41396 10.5878 7.41396 8.59982C7.41396 6.61182 9.02596 4.99982 11.014 4.99982C13.002 4.99982 14.614 6.61182 14.614 8.59982ZM3.03095 20.4761C3.30095 16.3021 6.77195 13.0001 11.014 13.0001C15.256 13.0001 18.727 16.3021 18.997 20.4761C19.015 20.7601 18.776 21.0001 18.491 21.0001H3.53695C3.25195 21.0001 3.01295 20.7601 3.03095 20.4761Z" fill="#313234"/>
</svg>

<svg xmlns="http://www.w3.org/2000/svg" width="24" height="24" fill="none" viewBox="0 0 24 24"><path fill="#313234" fill-rule="evenodd" d="M17.998 4a1 1 0 1 1 2 0v2h2a1 1 0 0 1 0 2h-2v2a1 1 0 0 1-2 0V8h-2a1 1 0 1 1 0-2h2zm-3.384 4.6a3.6 3.6 0 1 1-7.2 0 3.6 3.6 0 0 1 7.2 0M3.031 20.476a8 8 0 0 1 15.966 0 .504.504 0 0 1-.506.524H3.537a.504.504 0 0 1-.506-.524" clip-rule="evenodd"/></svg>
